X: 40403
T: Tom Kruskal's
R: reel
M: 4/4
K: Dmajor
d2fd eA A2|Addf gfed|fdgf ed (3Bcd|Addc d2fe|
eAfA ed (3Bcd|Addf gfed|g3f ed (3Bcd|Addc defg||
a2gf eA A2|Bgfg eA A2|Bgfg eA A2|a2 gf e2fg|
a2gf eA A2|Bgfg eA A2|g3f ed (3Bcd|Addc d2||

